packages/kaspersky-hexa-ui-icons/src/iconsSVGs/24/Stop.svg

<svg width="24" height="24" viewBox="0 0 24 24" fill="none" xmlns="http://www.w3.org/2000/svg">
<path fill-rule="evenodd" clip-rule="evenodd" d="M3 6C3 4.34315 4.34315 3 6 3H18C19.6569 3 21 4.34315 21 6V18C21 19.6569 19.6569 21 18 21H6C4.34315 21 3 19.6569 3 18V6ZM6 5C5.44772 5 5 5.44772 5 6V18C5 18.5523 5.44772 19 6 19H18C18.5523 19 19 18.5523 19 18V6C19 5.44772 18.5523 5 18 5H6Z" fill="black"/>
</svg>

<svg xmlns="http://www.w3.org/2000/svg" width="24" height="24" fill="none" viewBox="0 0 24 24"><path fill="#000" fill-rule="evenodd" d="M3 6c0-1.6569 1.3431-3 3-3h12c1.6569 0 3 1.3431 3 3v12c0 1.6569-1.3431 3-3 3H6c-1.6569 0-3-1.3431-3-3zm3-1c-.5523 0-1 .4477-1 1v12c0 .5523.4477 1 1 1h12c.5523 0 1-.4477 1-1V6c0-.5523-.4477-1-1-1z"/></svg>
